icons/highlight.svg

<svg xmlns="http://www.w3.org/2000/svg" viewBox="0 0 28.5187 19.6625">
  <path fill-rule="evenodd" clip-rule="evenodd" d="M0.253906 0V19.6625H18.6875C24.1171 19.6625 28.5187 15.2609 28.5187 9.83125C28.5187 4.4016 24.1171 0 18.6875 0H0.253906ZM17.6429 2.15901C13.8611 2.66905 10.9454 5.90965 10.9454 9.83125C10.9454 13.7528 13.8611 16.9934 17.6429 17.5035V2.15901ZM19.7321 17.5035C23.5139 16.9934 26.4296 13.7528 26.4296 9.83125C26.4296 5.90965 23.5139 2.66905 19.7321 2.15901V17.5035ZM12.6277 17.5734C10.3316 15.7737 8.85625 12.9748 8.85625 9.83125C8.85625 6.68774 10.3316 3.88881 12.6277 2.08914H2.34305V17.5734H12.6277Z" fill="currentColor"/>
</svg>

<svg xmlns="http://www.w3.org/2000/svg" viewBox="0 0 28.519 19.663">
  <path fill="currentColor" fill-rule="evenodd" d="M.254 0v19.663h18.434c5.43 0 9.83-4.402 9.83-9.832S24.119 0 18.689 0zm17.389 2.159a7.744 7.744 0 0 0 0 15.344zm2.09 15.344a7.744 7.744 0 0 0 0-15.344zm-7.105.07a9.81 9.81 0 0 1-3.772-7.742 9.81 9.81 0 0 1 3.772-7.742H2.343v15.484z" clip-rule="evenodd"/>
</svg>
